X: 261
T: da Grocer
C: Tom Anderson 1952
O: Shetland
N: Dedicated to the piper Willie Birnie.
Z: John Chambers <jc:trillian.mit.edu>
B: Caledonian Companion, p.76.
R: reel
M: C|
L: 1/8
K: D
|: dB || "D"AD ~D2 DFAc | defd edBd | "Em"BE ~E2 Bcdf |  "(A7)"gefd "A7"edBd | "D"AD ~D2 DFAc |
| defd edBd | "Em"BE ~E2 Bcde |  "A7"fdec "D"d2 :: g2 || "D"fd ~d2 fgaf | gefd edBd |
|"Em"Be ~e2 edef | "(A7)"gefd "A7"edBd | "D"AD ~D2 DFAc | defd edBd | "Em"BE ~E2 Bcde |  "A7"fdec "D"d2 :|

%%sep 1 1 500

